X:206
T: MUSS I DENN MUSS I DENN
N: E0785
O: Europa, Mitteleuropa, Deutschland, Schwaben, Remstal
R: Abschieds - Lied, Liebe
M: 2/4
L: 1/16
K: F
FG | A2AcB2Bd | c2cBA4 | c2cBA2
Ac | B2B2G2c2 | A4z2
FG | A2AcB2Bd | c2cBA4 | c2cBA2
Ac | B2B2G2c2 | A4z2
FA | G3AB2G2 | A3Bc2
cc | d2d2f2ed | c4z2
FA | c2cdc2cf | c2cBA4 | c2cBA2
Ac | B2B2G2c2 | A4z2

